tools/download-figma-icons/icons/outlined-large/account.svg

<svg width="64" height="64" viewBox="0 0 64 64" fill="none" xmlns="http://www.w3.org/2000/svg">
<path fill-rule="evenodd" clip-rule="evenodd" d="M21.8552 19.325C21.8552 13.632 26.4872 9 32.1802 9C37.8732 9 42.5052 13.632 42.5052 19.325C42.5052 25.019 37.8732 29.65 32.1802 29.65C26.4872 29.65 21.8552 25.019 21.8552 19.325ZM18.8552 19.325C18.8552 26.673 24.8322 32.65 32.1802 32.65C39.5282 32.65 45.5052 26.673 45.5052 19.325C45.5052 11.978 39.5282 6 32.1802 6C24.8322 6 18.8552 11.978 18.8552 19.325ZM52.2858 55.2744H12.0728C12.2858 53.1914 13.1058 49.2234 16.2188 45.9784C19.6818 42.3684 25.0488 40.5374 32.1698 40.5374C39.3018 40.5374 44.6748 42.3704 48.1408 45.9844C51.2528 49.2284 52.0738 53.1934 52.2858 55.2744ZM10.5048 58.2744H53.8548C54.6558 58.2744 55.3148 57.6454 55.3528 56.8454C55.3678 56.5484 55.6388 49.5004 50.3418 43.9444C46.2878 39.6924 40.1738 37.5374 32.1698 37.5374C24.1758 37.5374 18.0688 39.6914 14.0178 43.9394C8.71977 49.4954 8.99177 56.5474 9.00677 56.8454C9.04477 57.6454 9.70377 58.2744 10.5048 58.2744Z" fill="black"/>
</svg>

<svg xmlns="http://www.w3.org/2000/svg" width="64" height="64" fill="none" viewBox="0 0 64 64"><path fill="currentColor" fill-rule="evenodd" d="M21.855 19.325C21.855 13.632 26.487 9 32.18 9s10.325 4.632 10.325 10.325c0 5.694-4.632 10.325-10.325 10.325s-10.325-4.631-10.325-10.325m-3 0c0 7.348 5.977 13.325 13.325 13.325s13.325-5.977 13.325-13.325S39.528 6 32.18 6s-13.325 5.978-13.325 13.325m33.43 35.95H12.074c.213-2.084 1.033-6.052 4.146-9.297 3.463-3.61 8.83-5.44 15.95-5.44 7.133 0 12.506 1.832 15.972 5.446 3.112 3.244 3.933 7.21 4.145 9.29m-41.78 3h43.35a1.5 1.5 0 0 0 1.498-1.43c.015-.297.286-7.345-5.011-12.9-4.054-4.253-10.168-6.408-18.172-6.408-7.994 0-14.101 2.154-18.152 6.402-5.298 5.556-5.026 12.608-5.011 12.906a1.5 1.5 0 0 0 1.498 1.43" clip-rule="evenodd"/></svg>
